svg/OSM-icons/leisure #21610b °ffffff !label=enleisure,deFreizeit/21156;leisure=pitch;!name=;#sport=gaelic_games;[gaelic_games];[addr];[contact];!label=engaelic games,deGälische Spiele.svg

<svg xmlns="http://www.w3.org/2000/svg" viewBox="0 0 580 580" enable-background="new 0 0 580 580"><path fill="#111" stroke="#eee" stroke-width="3.408" d="m66.28 1.768c-41.34 0-64.57 21.371-64.57 65.04v450.12c0 40.844 20.894 62.23 62.19 62.23h452.02c41.31 0 62.23-20.316 62.23-62.23v-450.12c0-42.601-20.923-65.04-63.52-65.04-.003 0-448.49-.143-448.35 0z"/><g fill="#fff"><path d="m38.868 86.23l21.13-18.937c3.02-2.708 7.665-2.453 10.372.568l5.569 6.215c2.708 3.02 2.454 7.666-.568 10.372l-2.848 2.553 313.44 313.44c0 0 34.86 46.777 91.14 37.06 31.366-5.417 35.06 73.11 8.01 79.12-27.04 6.01-53.08 23.03-96.15-25.04-39.792-44.42-292.47-346.18-330.68-391.83l-4.053 3.632c-3.02 2.708-7.665 2.453-10.372-.568l-5.57-6.215c-2.706-3.02-2.452-7.664.57-10.373"/><circle cx="512.29" cy="350.71" r="28.2"/></g></svg>

<?xml version="1.0" encoding="utf-8"?>
<!-- Generator: Adobe Illustrator 15.0.0, SVG Export Plug-In . SVG Version: 6.00 Build 0)  -->
<!DOCTYPE svg PUBLIC "-//W3C//DTD SVG 1.1//EN" "http://www.w3.org/Graphics/SVG/1.1/DTD/svg11.dtd">
<svg version="1.1" xmlns="http://www.w3.org/2000/svg" xmlns:xlink="http://www.w3.org/1999/xlink" x="0px" y="0px" width="580px"
	 height="580px" viewBox="0 0 580 580" enable-background="new 0 0 580 580" xml:space="preserve">
<g id="Layer_2">
	<g id="g1327">
		<path id="path1329" fill="#111111" stroke="#EEEEEE" stroke-width="3.408" d="M66.275,1.768
			c-41.335,0-64.571,21.371-64.571,65.036v450.123c0,40.844,20.894,62.229,62.192,62.229H515.92
			c41.307,0,62.229-20.316,62.229-62.229V66.804c0-42.601-20.923-65.036-63.522-65.036C514.624,1.768,66.133,1.625,66.275,1.768z"/>
	</g>
</g>
<g id="svg2" inkscape:output_extension="org.inkscape.output.svg.inkscape" xmlns:cc="http://creativecommons.org/ns#" xmlns:svg="http://www.w3.org/2000/svg" xmlns:sodipodi="http://sodipodi.sourceforge.net/DTD/sodipodi-0.dtd" xmlns:rdf="http://www.w3.org/1999/02/22-rdf-syntax-ns#" xmlns:dc="http://purl.org/dc/elements/1.1/" xmlns:inkscape="http://www.inkscape.org/namespaces/inkscape" sodipodi:docname="waste_bin.svg" inkscape:version="0.46" sodipodi:version="0.32">
	<path fill="#FFFFFF" d="M38.868,86.229L60,67.292c3.021-2.708,7.665-2.453,10.372,0.568l5.569,6.215
		c2.708,3.022,2.454,7.666-0.568,10.372L72.525,87L385.967,400.44c0,0,34.86,46.777,91.142,37.058
		c31.366-5.417,35.056,73.114,8.013,79.124c-27.042,6.01-53.082,23.035-96.15-25.039C349.18,447.164,96.503,145.403,58.293,99.753
		l-4.053,3.632c-3.021,2.708-7.665,2.453-10.372-0.568l-5.57-6.215C35.592,93.581,35.846,88.938,38.868,86.229z"/>
	<circle fill="#FFFFFF" cx="512.292" cy="350.706" r="28.196"/>
</g>
</svg>
